!!!COM: Scriabin, Alexander
!!!OTL@@FR: Prélude pour la main gauche seule en do dièse mineur
!!!OTL@@EN: Prelude for the Left Hand Alone in C# Minor
!!!OPR@@FR: Prélude et nocturne pour la main gauche seule
!!!OPR@@EN: Prelude and Nocturne for the Left Hand Alone
!!!OPS: 9
!!!ONM: 1
!!!ODT: 1894
!!!AGN: Prelude
**kern	**kern	**dynam
*staff2	*staff1	*staff1/2
*Ipiano	*Ipiano	*
*clefF4	*clefG2	*
*k[f#c#g#d#]	*k[f#c#g#d#]	*
*c#:	*c#:	*
*M3/4	*M3/4	*
=1	=1	=1
*	*^	*
2.r	8.aL	8rc	.
.	.	8c# 8e	.
.	16aJk	.	.
.	[4a	8c#L 8e	.
.	.	8c#J 8e	.
.	16aLL]	8c#L 8e	.
.	16g#	.	.
.	16b	8c#J 8e	.
.	16aJJ	.	.
=2	=2	=2	=2
16r	8..aL	8B#XL 8d#	.
16GG#LL	.	.	.
16D#	.	8B#J 8d#	.
16EJJ	.	.	.
.	32g#Jkk	.	.
[2F#	2g#	8B#L 8d#	.
.	.	8B#J 8d#	.
.	.	8B#L 8d#	.
.	.	8B#J 8d#	.
=3	=3	=3	=3
2F#]	8.g#L	8rc	.
.	.	8Bn 8dn	.
.	16g#Jk	.	.
.	[4g#	8BL 8d	.
.	.	8BJ 8d	.
4E#X	16g#LL]	8BL 8d	.
.	16f##X	.	.
.	16a	8BJ 8d	.
.	16g#JJ	.	.
=4	=4	=4	=4
16r	8..g#L	8AL 8c#	.
16C#LL	.	.	.
16F#	.	8AJ 8c#	.
16G#JJ	.	.	.
.	32f#Jkk	.	.
2A	2f#	8AL 8c#	.
.	.	8AJ 8c#	.
.	.	8AL 8c#	.
.	.	8AJ 8c#	.
=5	=5	=5	=5
4A	8.f#L	8AL 8dn	.
.	.	8AJ 8d	.
.	16ddnJk	.	.
4.A	4.dd	8dL 8f#	.
.	.	8dJ 8f#	.
.	.	8dL 8f#	.
[8A	8cc#	8dJ 8f#	.
*	*v	*v	*
=6	=6	=6
16ALL]	8dnL 8f# 8cc#	.
16A	.	.
24B	8dJ 8f# 8b	.
24A	.	.
24F#JJ	.	.
4.G#	8r	.
.	8d 8f# 8a#X	.
.	8dL 8f# 8b	.
8G#	8dJ 8f# 8b#X	.
=7	=7	=7
*	*^	*
16ALL	4.cc#	4.c# 4.f#	.
16AA	.	.	.
16F#	.	.	.
16c#JJ	.	.	.
4f#	.	.	.
.	8cc#	8c# 8f#	.
16r	8dd#L	8c#L 8f##X	.
16D#LL	.	.	.
16c#	8anJ	8c#J	.
16f##XJJ	.	.	.
=8	=8	=8	=8
16r	4a	4c#	.
16GG#LL	.	.	.
16D#	.	.	.
16d#JJ	.	.	.
8r	4g#	4B#X	.
8GG#	.	.	.
8GG#L	4raa	4rc	.
8GG#J	.	.	.
*	*v	*v	*
=9	=9	=9
*^	*	*
8rc	2.GG#	8.AL	.
8F# 8B#X 8d#	.	.	.
.	.	16aJk	.
8rc	.	4.a	.
8F# 8B# 8d#	.	.	.
8F#L 8B# 8d#	.	.	.
8F#J 8B# 8d#	.	8d#	.
=10	=10	=10	=10
8G#L 8c#	16rEE	8..f#L	.
.	16GG#LL	.	.
8G#J 8c#	16C#	.	.
.	16D#JJ	.	.
.	.	32eJkk	.
8G#L 8c#	4.E	4.e	.
8G#J 8c#	.	.	.
8G# 8c#	.	.	.
8rc	[8GGG# [8GG#	8r	.
=11	=11	=11	=11
8rc	2GGG#] 2GG#]	8.c#L	.
8B 8e#X 8g#	.	.	.
.	.	16cc#Jk	.
8rc	.	4.cc#	.
8B 8e# 8g#	.	.	.
8BL 8e# 8g#	4rEE	.	.
8BJ 8e# 8g#	.	8g#	.
=12	=12	=12	=12
8c#L 8f#	16rEE	8..bL	.
.	16GG#LL 16C#	.	.
8c#J 8f#	16F#	.	.
.	16G#JJ	.	.
.	.	32aJkk	.
8AL 8c# 8f#	4.A	4.a	.
8AJ 8c# 8f#	.	.	.
8A 8c# 8f#	.	.	.
8rc	[8GGG# [8GG#	8r	.
=13	=13	=13	=13
8rc	2GGG#] 2GG#]	8.DnL 8.dn	.
8F# 8A	.	.	.
.	.	16dJk 16ddn	.
8rc	.	4.d 4.dd	.
8f#L 8a	.	.	.
8f#J 8a	8rEE	.	.
8rc	[8GGG# [8GG#	8r	.
=14	=14	=14	=14
8rc	2GGG#] 2GG#]	16DnKL 16c#	.
.	.	8D#X 8B#X	.
8F# 8A	.	.	.
.	.	16B#Jk 16b#X	.
8rc	.	4.B# 4.b#	.
8F#L 8A	.	.	.
8F#J 8A	8rEE	.	.
8rc	[8GGG# [8GG#	8r	.
=15	=15	=15	=15
8rc	2GGG#] 2GG#]	8.DnL 8.dn	.
8F# 8A	.	.	.
.	.	16dJk 16ddn	.
8rc	.	4.d 4.dd	.
8f#L 8a	.	.	.
8f#J 8a	8rEE	.	.
8rc	[8GGG# [8GG#	8r	.
=16	=16	=16	=16
8rc	2GGG#] 2GG#]	16DnKL 16c#	.
.	.	8D#X 8B#X	.
8F# 8A	.	.	.
.	.	16B#Jk 16b#X	.
8rc	.	4B# 4b#	.
8d# 8f#	.	.	.
8rc	4rEE	4Bn 4bn	.
[8d# [8f#	.	.	.
*v	*v	*	*
=17	=17	=17
8d#L] 8f#]	4A#X 4a#X	.
8d#J 8f#	.	.
4r	2An [2an	.
4r	.	.
=18	=18	=18
2.r	2.a]	.
=19	=19	=19
*	*^	*
2.r	8.aL	8rc	.
.	.	8c# 8e	.
.	16aJk	.	.
.	[4a	8c#L 8e	.
.	.	8c#J 8e	.
.	16aLL]	8c#L 8e	.
.	16g#	.	.
.	16b	8c#J 8e	.
.	16aJJ	.	.
=20	=20	=20	=20
16r	8..aL	8B#XL 8d#	.
16GG#LL	.	.	.
16D#	.	8B#J 8d#	.
16EJJ	.	.	.
.	32g#Jkk	.	.
[2F#	2g#	8B#L 8d#	.
.	.	8B#J 8d#	.
.	.	8B#L 8d#	.
.	.	8B#J 8d#	.
=21	=21	=21	=21
2F#]	8.g#L	8rc	.
.	.	8Bn 8dn	.
.	16g#Jk	.	.
.	[4g#	8BL 8d	.
.	.	8BJ 8d	.
4E#X	16g#LL]	8BL 8d	.
.	16f##X	.	.
.	16a	8BJ 8d	.
.	16g#JJ	.	.
=22	=22	=22	=22
16r	8..g#L	8AL 8c#	.
16C#LL	.	.	.
16F#	.	8AJ 8c#	.
16G#JJ	.	.	.
.	32f#Jkk	.	.
2A	2f#	8AL 8c#	.
.	.	8AJ 8c#	.
.	.	8AL 8c#	.
.	.	8AJ 8c#	.
=23	=23	=23	=23
4A	8.f#L	8AL 8dn	.
.	.	8AJ 8d	.
.	16ddnJk	.	.
4.A	4.dd	8dL 8f#	.
.	.	8dJ 8f#	.
.	.	8dL 8f#	.
[8A	8cc#	8dJ 8f#	.
*	*v	*v	*
=24	=24	=24
16ALL]	8dnL 8f# 8cc#	.
16A	.	.
24B	8dJ 8f# 8b	.
24A	.	.
24F#JJ	.	.
4.G#	8r	.
.	8d 8f# 8a#X	.
.	8dL 8f# 8b	.
8G#	8dJ 8f# 8b#X	.
=25	=25	=25
*	*^	*
16ALL	4.c# 4.f# 4.cc#	4.rc	.
16AA	.	.	.
16F#	.	.	.
16c#JJ	.	.	.
8f#	.	.	.
8r	8b#X	8c# 8f#	.
4r	8dd#L	8c#L 8f#	.
.	8cc#J	8c#J 8f#	.
=26	=26	=26	=26
16r	4.cc#	4.c# 4.f##X	.
16AALL	.	.	.
16D#	.	.	.
16c#JJ	.	.	.
4f##X	.	.	.
.	8b#X	8c# 8f##	.
4r	8cc#L	8c#L 8f##	.
.	8f##J	8c#J 8d#	.
*	*v	*v	*
=27	=27	=27
*^	*	*
8c#L 8e	16rEE	[4g#	.
.	16GG#LL	.	.
8G#J 8c#	16C#	.	.
.	16D#JJ	.	.
8G#L 8c#	2E	16g#LL]	.
.	.	16f##X	.
8c#J 8e	.	16a	.
.	.	16g#JJ	.
8eL 8g#	.	16b#XLL	.
.	.	16cc#	.
8G#J 8c#	.	16g#	.
.	.	16eJJ	.
*v	*v	*	*
=28	=28	=28
*	*^	*
16r	[4g#	[4A [4c#	.
16GG#LL	.	.	.
16D#	.	.	.
16EJJ	.	.	.
16ALL	8g#L]	8AL] 8c#]	.
16F#JJ	.	.	.
8r	16f#L	8AJ 8c#	.
.	16e#XJJ	.	.
16r	8g#L	8AL 8c#	.
8D#	.	.	.
.	16f#L	8AJ 8c#	.
16r	16e#JJ	.	.
=29	=29	=29	=29
16r	[4g#	[4A [4c#	.
16GG#LL	.	.	.
16D#	.	.	.
16EnJJ	.	.	.
16ALL	8g#L]	8AL] 8c#]	.
16F#JJ	.	.	.
8r	16f#L	8AJ 8c#	.
.	16enJJ	.	.
16r	8.eL	4F# 4B#X	.
16GG#LL	.	.	.
16G#JJ	.	.	.
16r	16d#Jk	.	.
*	*v	*v	*
=30	=30	=30
16r	4.E 4.G# 4.c#	.
16CC#LL	.	.
16GG#	.	.
16EJJ	.	.
16c#LL	.	.
16E	.	.
16c#	8r	.
16g#JJ	.	.
4cc#	4r	.
=31	=31	=31
*^	*	*
8dnL 8f#	16G#LL	8..bL	.
.	16CC#	.	.
8F#J 8B	16GG#	.	.
.	16DnJJ	.	.
.	.	32g#Jkk	.
4d 4f#	16BLL	2g#	.
.	16A#X	.	.
.	16c#	.	.
.	16BJJ	.	.
4rc	16G#LL	.	.
.	16F#	.	.
.	16D	.	.
.	16GG#JJ	.	.
=32	=32	=32	=32
8AL 8dn	16F#LL	8..aL	.
.	16CC#	.	.
8F#J 8A	16AA	.	.
.	16DnJJ	.	.
.	.	32f#Jkk	.
4d 4f#	16ALL	2f#	.
.	16G#	.	.
.	16B	.	.
.	16AJJ	.	.
4rc	16G#LL	.	.
.	16F#	.	.
.	16D	.	.
.	16AAJJ	.	.
*v	*v	*	*
=33	=33	=33
*	*^	*
16r	[4f#	4.A 4.B#X	.
16CC#LL	.	.	.
16FF#	.	.	.
16GG#JJ	.	.	.
16DnLL	8f#L]	.	.
16AA	.	.	.
16F#	8e#XJ	8B#	.
16G#JJ	.	.	.
4A	8g#L	4A 4B#	.
.	8f#J	.	.
*	*v	*v	*
=34	=34	=34
16r	2.G# 2.c# 2.e#X	.
16CC#LL	.	.
16GG#	.	.
16E#XJJ	.	.
2c#	.	.
==	==	==
*-	*-	*-
!!!system-decoration: {(*)}
!!!ENC: Bryan Jacob Bell
!!!END: November 2021 to April 2022
!!!PED: Konstantin Igumnov and Yakov Milstein
!!!PTL: A.N. Skryabin: Polnoe sobranie sochinenii dlia fortepiano (Muzgiz)
